X:1
T:Title
%%score 1 { 2 | 3 }
L:1/8
Q:1/4=75
M:6/8
K:Ab
V:1 treble nm="Drawbar Organ, Soprano"
V:2 bass nm="Church Organ, Jesus Is Coming Again Staples"
V:3 bass 
V:1
 [CE]>[DF][CE] [CE][CA][EA] | [EB]>[EA][EB] .[Ec]3 | [Ec]>[EB][EA] [DB][DA][DF] | %3
w: By~Robert~G.~Staples * * * * *|||
 [CE][EA]>[Ec] .[EB]3 | [CE]>[DF][CE] [CE][CA][EA] | [EB]>[EA][EB] .[Ec]3 | %6
w: |||
 [Ee]>[Ed][Ec] [Ed][Ec][EB] | [DB]>[DF][DG] .[CA]3 | [Fd]>[Fd][Fd] [Fd][Ec][EB] | %9
w: |||
 [EB]>[EA][EB] .[Ec]3 | [Ae]>[Ae][Ae] [Ae][Ec]E | [EG]>[EA][EB] [EA]3- | [EA]3 z3 |] %13
w: ||||
V:2
 A,>A,A, A,A,A, | G,>A,G, .A,3 | A,>G,A, F,F,A, | A,A,>A, .G,3 | A,>A,A, A,A,A, | G,>A,G, .A,3 | %6
 C>B,A, B,A,G, | G,>A,B, .A,3 | A,>A,A, A,A,G, | G,>A,G, .A,3 | C>CC CA,A, | B,>CD C3- | C3 z3 |] %13
V:3
 A,,>A,,A,, A,,A,,C, | E,>C,E, z3 | A,,>B,,C, D,D,D, | A,,C,>A,, .E,3 | A,,>A,,A,, A,,A,,C, | %5
 E,>C,E, z3 | A,3/2.G,3/2 E,E,E, | E,>E,E, .A,,3 | D,>D,D, A,,A,,E, | E,>C,E, z3 | %10
 A,>A,A, .A,2 C, | E,>E,E, A,,3- | A,,3 z3 |] %13

